icons/svg/topo/topo_jewish.svg

<?xml version="1.0" encoding="UTF-8" standalone="no"?>
<!-- Created with Inkscape (http://www.inkscape.org/) -->

<svg
   xmlns:dc="http://purl.org/dc/elements/1.1/"
   xmlns:cc="http://creativecommons.org/ns#"
   xmlns:rdf="http://www.w3.org/1999/02/22-rdf-syntax-ns#"
   xmlns:svg="http://www.w3.org/2000/svg"
   xmlns="http://www.w3.org/2000/svg"
   xmlns:sodipodi="http://sodipodi.sourceforge.net/DTD/sodipodi-0.dtd"
   xmlns:inkscape="http://www.inkscape.org/namespaces/inkscape"
   version="1.0"
   width="580"
   height="580"
   id="svg2"
   sodipodi:version="0.32"
   inkscape:version="0.91 r"
   sodipodi:docname="topo_jewish.svg"
   inkscape:output_extension="org.inkscape.output.svg.inkscape">
  <metadata
     id="metadata2975">
    <rdf:RDF>
      <cc:Work
         rdf:about="">
        <dc:format>image/svg+xml</dc:format>
        <dc:type
           rdf:resource="http://purl.org/dc/dcmitype/StillImage" />
        <cc:license
           rdf:resource="http://web.resource.org/cc/PublicDomain" />
        <dc:language>en</dc:language>
      </cc:Work>
    </rdf:RDF>
  </metadata>
  <sodipodi:namedview
     inkscape:window-height="1006"
     inkscape:window-width="1920"
     inkscape:pageshadow="2"
     inkscape:pageopacity="0.0"
     guidetolerance="10.0"
     gridtolerance="10.0"
     objecttolerance="10.0"
     borderopacity="1.0"
     bordercolor="#666666"
     pagecolor="#ffffff"
     id="base"
     inkscape:zoom="0.65172414"
     inkscape:cx="334.08252"
     inkscape:cy="360.83429"
     inkscape:window-x="1920"
     inkscape:window-y="0"
     inkscape:current-layer="svg2"
     showgrid="false"
     inkscape:window-maximized="1" />
  <defs
     id="defs4">
    <inkscape:perspective
       sodipodi:type="inkscape:persp3d"
       inkscape:vp_x="0 : 290 : 1"
       inkscape:vp_y="0 : 1000 : 0"
       inkscape:vp_z="580 : 290 : 1"
       inkscape:persp3d-origin="290 : 193.33333 : 1"
       id="perspective2441" />
    <inkscape:perspective
       id="perspective2466"
       inkscape:persp3d-origin="372.04724 : 350.78739 : 1"
       inkscape:vp_z="744.09448 : 526.18109 : 1"
       inkscape:vp_y="0 : 1000 : 0"
       inkscape:vp_x="0 : 526.18109 : 1"
       sodipodi:type="inkscape:persp3d" />
    <inkscape:perspective
       id="perspective3333"
       inkscape:persp3d-origin="372.04724 : 350.78739 : 1"
       inkscape:vp_z="744.09448 : 526.18109 : 1"
       inkscape:vp_y="0 : 1000 : 0"
       inkscape:vp_x="0 : 526.18109 : 1"
       sodipodi:type="inkscape:persp3d" />
    <inkscape:perspective
       id="perspective3401"
       inkscape:persp3d-origin="372.04724 : 350.78739 : 1"
       inkscape:vp_z="744.09448 : 526.18109 : 1"
       inkscape:vp_y="0 : 1000 : 0"
       inkscape:vp_x="0 : 526.18109 : 1"
       sodipodi:type="inkscape:persp3d" />
    <inkscape:perspective
       id="perspective3464"
       inkscape:persp3d-origin="372.04724 : 350.78739 : 1"
       inkscape:vp_z="744.09448 : 526.18109 : 1"
       inkscape:vp_y="0 : 1000 : 0"
       inkscape:vp_x="0 : 526.18109 : 1"
       sodipodi:type="inkscape:persp3d" />
    <inkscape:perspective
       id="perspective3581"
       inkscape:persp3d-origin="225 : 150 : 1"
       inkscape:vp_z="450 : 225 : 1"
       inkscape:vp_y="0 : 1000 : 0"
       inkscape:vp_x="0 : 225 : 1"
       sodipodi:type="inkscape:persp3d" />
    <inkscape:perspective
       id="perspective4312"
       inkscape:persp3d-origin="225 : 150 : 1"
       inkscape:vp_z="450 : 225 : 1"
       inkscape:vp_y="0 : 1000 : 0"
       inkscape:vp_x="0 : 225 : 1"
       sodipodi:type="inkscape:persp3d" />
  </defs>
  <g
     id="g1327">
    <path
       d="M 66.275,1.768 C 24.94,1.768 1.704,23.139 1.704,66.804 L 1.704,516.927 C 1.704,557.771 22.599,579.156 63.896,579.156 L 515.92,579.156 C 557.227,579.156 578.149,558.841 578.149,516.927 L 578.149,66.804 C 578.149,24.203 557.227,1.768 514.628,1.768 C 514.624,1.768 66.133,1.625 66.275,1.768 z "
       style="fill:#111;stroke:#eee;stroke-width:3.40799999"
       id="path1329" />
  </g>
  <path
     style="fill:#ffffff;fill-opacity:1"
     d="M 252.69654,471.20341 218.94573,412.6444 152.542,412.61398 c -41.38303,-0.019 -67.249797,-1.39929 -68.649108,-3.66343 -1.234959,-1.99822 12.437207,-29.15996 30.382598,-60.35949 22.2523,-38.68742 31.87138,-58.71509 30.24883,-62.98031 -1.30855,-3.43967 -15.87441,-29.57881 -32.36866,-58.08693 C 95.661463,199.01566 82.1662,173.83579 82.1662,171.56857 c 0,-2.98494 18.86835,-4.1236 68.38977,-4.12709 l 68.38976,-0.005 33.65707,-58.61501 c 18.5114,-32.238247 34.78942,-58.614998 36.17341,-58.614998 3.79572,0 13.27315,14.698532 44.09693,68.389768 l 28.04438,48.84982 68.45814,0 c 52.48093,0 68.42188,1.03643 68.30276,4.44091 -0.0855,2.44247 -15.00729,29.97098 -33.15962,61.17444 l -33.00419,56.73352 33.15958,57.44637 c 18.2378,31.59547 33.15961,59.22287 33.15961,61.3942 0,2.7588 -20.61964,3.94791 -68.45814,3.94791 l -68.45814,0 -28.04438,48.84981 c -30.6725,53.42776 -40.31385,68.40568 -44.0032,68.35944 -1.33245,-0.0167 -17.61048,-26.38203 -36.1734,-58.58947 z m 49.47723,-35.07143 c 6.0054,-10.49633 10.91891,-20.08865 10.91891,-21.31631 0,-1.22763 -10.39169,-2.23204 -23.09265,-2.23204 -12.70097,0 -23.09264,1.00441 -23.09264,2.23204 0,2.88908 21.44125,40.40053 23.09264,40.40053 0.69017,0 6.16837,-8.58791 12.17374,-19.08422 z M 184.44604,352.22963 c -6.42709,-11.7008 -12.48497,-21.27415 -13.46198,-21.27415 -0.977,0 -7.03486,9.57335 -13.46194,21.27415 l -11.68559,21.27412 25.14753,0 25.14754,0 -11.68556,-21.27412 z m 167.14061,-2.7067 c 7.66613,-13.18948 18.45262,-32.11915 23.97003,-42.06595 l 10.03158,-18.08515 -23.01462,-40.53465 -23.01459,-40.53467 -49.40088,0 -49.40084,0 -22.45212,38.66319 c -12.34868,21.26474 -22.45214,40.34764 -22.45214,42.40637 0,3.68127 36.83489,71.0146 43.59512,79.6908 2.46036,3.15764 17.14811,4.44088 50.83012,4.44088 l 47.36995,0 13.93839,-23.98082 z m 70.89124,2.7067 c -6.42708,-11.7008 -12.48494,-21.27415 -13.46194,-21.27415 -0.97701,0 -7.03489,9.57335 -13.46197,21.27415 l -11.68553,21.27412 25.1475,0 25.14753,0 -11.68559,-21.27412 z m -238.26586,-124.4463 11.45161,-21.25718 -24.91354,0 -24.91357,0 11.68559,21.27415 c 6.42708,11.70078 12.48494,21.26648 13.46194,21.25713 0.97701,-0.009 6.92958,-9.58268 13.22797,-21.2741 z m 238.03186,0 11.45163,-21.25718 -24.91355,0 -24.91352,0 11.68553,21.27415 c 6.42708,11.70078 12.48496,21.26648 13.46197,21.25713 0.977,-0.009 6.92955,-9.58268 13.22794,-21.2741 z m -109.15121,-62.5691 c 0,-2.88906 -21.44128,-40.40051 -23.09265,-40.40051 -1.65139,0 -23.09264,37.51145 -23.09264,40.40051 0,1.22763 10.39167,2.23205 23.09264,2.23205 12.70096,0 23.09265,-1.00442 23.09265,-2.23205 z"
     id="path6812"
     sodipodi:nodetypes="cccssssscccscccscccscccsccssssccscccccccccccccssccccsccccccccccsccccccsccsssc"
     inkscape:connector-curvature="0" />
</svg>

<svg width="580" height="580" viewBox="0 0 580 580" fill="none" xmlns="http://www.w3.org/2000/svg">
<g clip-path="url(#clip0)">
<path d="M66.2751 1.76815C24.9401 1.76815 1.7041 23.1391 1.7041 66.8041V516.927C1.7041 557.771 22.5991 579.156 63.8961 579.156H515.92C557.227 579.156 578.149 558.841 578.149 516.927V66.8041C578.149 24.2031 557.227 1.76815 514.628 1.76815C514.624 1.76815 66.1331 1.62515 66.2751 1.76815Z" fill="#111111" stroke="#EEEEEE" stroke-width="3.408"/>
<path d="M252.696 471.203L218.946 412.644L152.542 412.614C111.159 412.595 85.292 411.215 83.8927 408.951C82.6577 406.952 96.3299 379.791 114.275 348.591C136.528 309.904 146.147 289.876 144.524 285.611C143.216 282.171 128.65 256.032 112.155 227.524C95.6613 199.016 82.166 173.836 82.166 171.569C82.166 168.584 101.034 167.445 150.556 167.442L218.946 167.437L252.603 108.822C271.114 76.5833 287.392 50.2065 288.776 50.2065C292.572 50.2065 302.049 64.9051 332.873 118.596L360.917 167.446H429.375C481.856 167.446 497.797 168.483 497.678 171.887C497.593 174.33 482.671 201.858 464.519 233.061L431.514 289.795L464.674 347.241C482.912 378.837 497.834 406.464 497.834 408.636C497.834 411.394 477.214 412.583 429.375 412.583H360.917L332.873 461.433C302.2 514.861 292.559 529.839 288.87 529.793C287.537 529.776 271.259 503.411 252.696 471.203V471.203ZM302.174 436.132C308.179 425.636 313.092 416.043 313.092 414.816C313.092 413.588 302.701 412.584 290 412.584C277.299 412.584 266.907 413.588 266.907 414.816C266.907 417.705 288.348 455.216 290 455.216C290.69 455.216 296.168 446.628 302.174 436.132ZM184.446 352.23C178.019 340.529 171.961 330.956 170.984 330.956C170.007 330.956 163.949 340.529 157.522 352.23L145.836 373.504H170.984H196.131L184.446 352.23V352.23ZM351.586 349.523C359.253 336.333 370.039 317.404 375.556 307.457L385.588 289.372L362.573 248.837L339.559 208.303H290.158H240.757L218.305 246.966C205.956 268.231 195.853 287.313 195.853 289.372C195.853 293.053 232.688 360.387 239.448 369.063C241.908 372.221 256.596 373.504 290.278 373.504H337.648L351.586 349.523V349.523ZM422.478 352.23C416.051 340.529 409.993 330.956 409.016 330.956C408.039 330.956 401.981 340.529 395.554 352.23L383.868 373.504H409.016H434.163L422.478 352.23V352.23ZM184.212 227.783L195.663 206.526H170.75H145.836L157.522 227.8C163.949 239.501 170.007 249.067 170.984 249.058C171.961 249.049 177.913 239.475 184.212 227.783V227.783ZM422.244 227.783L433.695 206.526H408.782H383.868L395.554 227.8C401.981 239.501 408.039 249.067 409.016 249.058C409.993 249.049 415.945 239.475 422.244 227.783V227.783ZM313.092 165.214C313.092 162.325 291.651 124.814 290 124.814C288.348 124.814 266.907 162.325 266.907 165.214C266.907 166.442 277.299 167.446 290 167.446C302.701 167.446 313.092 166.442 313.092 165.214Z" fill="white"/>
</g>
<defs>
<clipPath id="clip0">
<path d="M0 0H580V580H0V0Z" fill="white"/>
</clipPath>
</defs>
</svg>
